svgs/solid/bed-front.svg

<svg xmlns="http://www.w3.org/2000/svg" viewBox="0 0 512 512"><!-- Font Awesome Pro 6.0.0-alpha2 by @fontawesome - https://fontawesome.com License - https://fontawesome.com/license (Commercial License) --><path d="M80 160C80 142.375 94.375 128 112 128H208C225.625 128 240 142.375 240 160V192H272V160C272 142.375 286.375 128 304 128H400C417.625 128 432 142.375 432 160V192H480V64C480 46.375 465.625 32 448 32H64C46.375 32 32 46.375 32 64V192H80V160ZM448 224H64C28.625 224 0 252.625 0 288V464C0 472.875 7.125 480 16 480H48C56.875 480 64 472.875 64 464V416H448V464C448 472.875 455.125 480 464 480H496C504.875 480 512 472.875 512 464V288C512 252.625 483.375 224 448 224Z"/></svg>

<svg xmlns="http://www.w3.org/2000/svg" viewBox="0 0 512 512"><!--! Font Awesome Pro 6.0.0-alpha3 by @fontawesome - https://fontawesome.com License - https://fontawesome.com/license (Commercial License) --><path d="M80 160c0-17.62 14.38-32 32-32h96c17.62 0 32 14.38 32 32v32h32V160c0-17.62 14.38-32 32-32h96c17.62 0 32 14.38 32 32v32H480V64c0-17.62-14.38-32-32-32H64C46.38 32 32 46.38 32 64v128h48V160zM448 224H64C28.62 224 0 252.6 0 288v176C0 472.9 7.125 480 16 480h32C56.88 480 64 472.9 64 464V416h384v48c0 8.875 7.125 16 16 16h32c8.875 0 16-7.125 16-16V288C512 252.6 483.4 224 448 224z"/></svg>
